newicons/assassin.svg

<?xml version="1.0" encoding="UTF-8" standalone="no"?>
<svg
   viewBox="0 0 48 48"
   version="1.1"
   id="svg1"
   sodipodi:docname="assassin.svg"
   inkscape:version="1.2.2 (b0a8486541, 2022-12-01)"
   xml:space="preserve"
   xmlns:inkscape="http://www.inkscape.org/namespaces/inkscape"
   xmlns:sodipodi="http://sodipodi.sourceforge.net/DTD/sodipodi-0.dtd"
   xmlns="http://www.w3.org/2000/svg"
   xmlns:svg="http://www.w3.org/2000/svg"><sodipodi:namedview
     id="namedview1"
     pagecolor="#505050"
     bordercolor="#eeeeee"
     borderopacity="1"
     inkscape:showpageshadow="0"
     inkscape:pageopacity="0"
     inkscape:pagecheckerboard="0"
     inkscape:deskcolor="#505050"
     inkscape:zoom="12.59534"
     inkscape:cx="21.515895"
     inkscape:cy="21.754078"
     inkscape:window-width="1918"
     inkscape:window-height="1053"
     inkscape:window-x="0"
     inkscape:window-y="0"
     inkscape:window-maximized="1"
     inkscape:current-layer="svg1"
     showgrid="false" /><defs
     id="defs1"><style
       id="style1">.a { fill:none;stroke:#fff;stroke-linecap:round;stroke-linejoin:round; }
</style></defs><g
     id="g14453"><path
       style="fill:none;stroke:#ffffff;stroke-width:1;stroke-linecap:round;stroke-linejoin:round;stroke-dashoffset:3.6;stroke-opacity:1"
       d="m 22.211112,24.122961 c 0.899464,1.943296 1.03449,5.140236 1.807157,9.332804 -2.999445,-3.218073 -8.813085,-1.082386 -12.512433,1.000076 0.231403,-1.745095 0.191419,-2.923768 0.02542,-4.827459"
       id="path14423" /><path
       style="fill:none;stroke:#ffffff;stroke-width:1;stroke-linecap:round;stroke-linejoin:round;stroke-dashoffset:3.6;stroke-opacity:1"
       d="m 18.712079,13.96904 c 1.234915,-0.08916 1.530364,0.362934 2.007693,0.933969 2.507282,2.999491 2.002966,8.964706 1.158134,9.919506 -2.089775,2.361795 -4.874937,4.806042 -10.412008,4.777559 -1.38712,0.346847 -5.0390712,-0.09728 -5.2812611,-1.82362 C 6.0907429,26.626852 8.9526277,26.577417 9.0390597,25.6816 9.3897237,22.047167 8.0481242,20.495528 7.1095098,19.214398 6.2896237,18.095323 7.7697206,14.120593 11.461398,14.75384 c 1.005784,0.172526 1.767318,0.538859 2.643219,1.471797"
       id="path14421" /><path
       style="fill:none;stroke:#ffffff;stroke-width:1;stroke-linecap:round;stroke-linejoin:round;stroke-dashoffset:3.6;stroke-opacity:1"
       d="m 11.461398,14.75384 c 1.743936,-1.378991 3.197497,-1.590838 5.175102,-0.576214 0.614328,0.315185 0.717006,1.177953 0.845638,1.930269"
       id="path14419" /><path
       style="fill:none;stroke:#ffffff;stroke-width:1;stroke-linecap:round;stroke-linejoin:round;stroke-dashoffset:3.6;stroke-opacity:1"
       d="m 20.354842,19.183065 a 1.8504749,3.8944861 65.97995 0 1 -2.879079,3.273162 1.8504749,3.8944861 65.97995 0 1 -4.260695,-0.162326 1.8504749,3.8944861 65.97995 0 1 2.879079,-3.273163 1.8504749,3.8944861 65.97995 0 1 4.260695,0.162327 z"
       id="path14417" /><path
       style="fill:none;stroke:#ffffff;stroke-width:1;stroke-linecap:round;stroke-linejoin:round;stroke-dashoffset:3.6;stroke-opacity:1"
       d="m 19.831768,16.337046 c 0.104104,-1.499822 -0.448986,-2.241263 -1.215253,-2.384881 -1.091797,-0.204631 -1.437708,0.07675 -1.721806,0.416223"
       id="path14415" /></g><g
     id="g14446"><path
       style="fill:none;stroke:#ffffff;stroke-width:1;stroke-linecap:round;stroke-linejoin:round;stroke-dashoffset:3.6;stroke-opacity:1"
       d="m 7.6435732,19.946079 c -0.5059034,2.032675 -0.3677247,4.906378 0.7004902,6.377916"
       id="path14413" /><path
       style="fill:none;stroke:#ffffff;stroke-width:1;stroke-linecap:round;stroke-linejoin:round;stroke-dashoffset:3.6;stroke-opacity:1"
       d="M 7.7897344,26.541505 6.104596,26.82416 C 4.3134731,25.314184 3.8424813,21.85389 5.6185446,19.784405 L 7.3596342,19.55338"
       id="path14411" /></g><g
     id="g14442"><path
       style="fill:none;stroke:#ffffff;stroke-width:1;stroke-linecap:round;stroke-linejoin:round;stroke-dashoffset:3.6;stroke-opacity:1"
       d="m 21.990825,17.306504 c 3.106968,-0.615233 5.971954,-0.992641 8.854293,-1.247247 7.840485,-0.692577 10.334247,0.941991 12.376388,4.183335 0.560175,0.889125 0.41842,1.078938 -1.461353,1.215081 -2.59153,0.187692 -6.792702,0.429204 -10.189047,1.558481 l -9.285312,1.092637"
       id="path14409" /><path
       style="fill:none;stroke:#ffffff;stroke-width:1;stroke-linecap:round;stroke-linejoin:round;stroke-dashoffset:3.6;stroke-opacity:1"
       d="M 40.898922,21.515433 C 39.839135,19.654588 38.63035,18.965321 35.14932,18.904911 31.66269,18.844401 28.176048,19.244978 24.689417,19.749624 L 22.849719,17.143486"
       id="path14407" /><path
       style="fill:none;stroke:#ffffff;stroke-width:1;stroke-linecap:round;stroke-linejoin:round;stroke-dashoffset:3.6;stroke-opacity:1"
       d="m 26.09562,20.800687 c -1.040373,0.498449 -0.978988,1.508124 -0.806731,2.949775"
       id="path14381" /></g></svg>

<?xml version="1.0" encoding="UTF-8"?><svg id="b" xmlns="http://www.w3.org/2000/svg" viewBox="0 0 48 48"><defs><style>.p{fill:none;stroke:#fff;stroke-linecap:round;stroke-linejoin:round;}</style></defs><g id="c"><path id="d" class="p" d="M22.2067,24.1231c.8992,1.9428,1.0342,5.139,1.8067,9.3305-2.9987-3.2173-8.8109-1.0821-12.5093.9998.2313-1.7447.1914-2.923.0254-4.8263"/><path id="e" class="p" d="M18.7085,13.9717c1.2346-.0891,1.53.3628,2.0072.9337,2.5067,2.9987,2.0025,8.9625,1.1578,9.9171-2.0893,2.3612-4.8737,4.8049-10.4094,4.7764-1.3868.3468-5.0378-.0973-5.28-1.8232-.0939-1.1493,2.7673-1.1987,2.8537-2.0943.3506-3.6335-.9907-5.1848-1.9291-6.4656-.8197-1.1188.66-5.0925,4.3508-4.4595,1.0055.1725,1.7669.5387,2.6426,1.4714"/><path id="f" class="p" d="M11.4596,14.7563c1.7435-1.3787,3.1967-1.5904,5.1738-.5761.6142.3151.7168,1.1777.8454,1.9298"/><path id="g" class="p" d="M20.3508,19.1844c.3814.9485-.9073,2.4135-2.8784,3.2724-1.9711.8588-3.8782.7862-4.2596-.1623h0c-.3814-.9485.9073-2.4135,2.8784-3.2724s3.8782-.7862,4.2596.1623h0Z"/><path id="h" class="p" d="M19.8279,16.3391c.1041-1.4995-.4489-2.2407-1.215-2.3843-1.0915-.2046-1.4374.0767-1.7214.4161"/></g><g id="i"><path id="j" class="p" d="M7.6427,19.9472c-.5058,2.0322-.3676,4.9052.7003,6.3763"/><path id="k" class="p" d="M7.7888,26.541l-1.6847.2826c-1.7907-1.5096-2.2616-4.969-.4859-7.038l1.7407-.231"/></g><g id="l"><path id="m" class="p" d="M21.9864,17.3083c3.1062-.6151,5.9705-.9924,8.8521-1.2469,7.8385-.6924,10.3317.9418,12.3733,4.1823.56.8889.4183,1.0787-1.461,1.2148-2.5909.1876-6.791.4291-10.1865,1.5581l-9.283,1.0924"/><path id="n" class="p" d="M40.8899,21.5162c-1.0595-1.8604-2.268-2.5495-5.7482-2.6099-3.4858-.0605-6.9715.34-10.4573.8445l-1.8392-2.6055"/><path id="o" class="p" d="M26.0902,20.8016c-1.0401.4983-.9787,1.5078-.8065,2.949"/></g></svg>
